X:1
T:Andantion in A major
T:Andantino (A major) 
T:Matteo Carcassi Reedição e Cifras por: Solmus Youtube: http://bit.ly/2qNUZ59 
T:25 Etudes (Op. 60, No. 3)
%%score ( 1 2 3 4 )
L:1/8
Q:1/4=80
M:4/4
K:A
V:1 treble-8 nm="Classical Guitar" snm="Guit."
V:2 treble-8 
V:3 treble-8 
V:4 treble-8 
V:1
"^A" (3z Ac (3fAc (3eAc (3z Ac | (3z Bd (3fBd (3eBd (3z Bd |"G#m9/F#" (3z Bd (3aBd (3gBd (3z Bd | %3
"A13" (3z ce (3bce (3ace (3z ce |"Amaj7" (3z Ac (3gAc"A6" (3fAc (3z Ac | %5
!<(! (3z =Gc (3fGc (3eGc (3z Gc!<)! | (3z!>(! FA (3eFA (3z FA (3^dFA!>)! | (3z GB (3eGB E2 z2 :: %8
"^B" (3z GB (3fGB (3eGB (3z GB | (3z Ac (3gAc (3fAc (3z Ac | %10
"_cresc." (3z ^Ac (3=gAc"A#other" (3fAc (3z Ac | (3z Bd (3aBd (3gBd (3z Bd | %12
 (3z Bd (3aBd (3gBd (3z Bd | (3z Ac (3aAc (3z Ac (3aAc | (3z df (3bdf (3z df (3=c'df | %15
!>(! (3z =fg (3c'fg cdBe!>)! |"^A2" (3z Ac (3fAc"A" (3eAc (3z Ac | (3z Bd (3aBd (3gBd (3z Bd | %18
 (3z GB (3fGB (3eGB (3z GB | (3z ce (3bce (3ace (3z ce | %20
"_cresc." (3z ce (3(bce"F#7" (3^a)ce (3z ce |!<(! (3z df (3(c'df (3bdf (3d')df!<)! | %22
 (3z AB!>(!"_dim." (3(=fAB (3z G=d (3e)Gd!>)! |!pp! (3z ce (3(ace A2) z2 :| %24
V:2
 x2 (f2 e2) x2 | x2 (f2 e2) x2 | x2 (a2 g2) x2 | x2 (b2 a2) x2 | x2 (g2 f2) x2 | x2 (f2 e2) x2 | %6
 x2 e2 x2 ^d2 | x2 e2 x4 :: x2 (f2 e2) x2 | x2 (g2 f2) x2 | x2 (=g2 f2) x2 | x2 (a2 g2) x2 | %12
 x2 (a2 g2) x2 | x2 a2 x2 a2 | x2 b2 x2 =c'2 | x2 (c'2 c2) x2 | x2 (f2 e2) x2 | x2 (a2 g2) x2 | %18
 x2 (f2 e2) x2 | x2 (b2 a2) x2 | x2 b2 ^a2 x2 | x2 c'2 b2 d'2 | x2 =f2 x2 e2 | x2 a2 A2 x2 :| %24
V:3
"A13""A" A,6 A,2 |"G#power7""Gother" G,6 G,2 | F,6 F,2 | A,6 A,2 | A,6 A,2 | x8 | x8 | x8 :: x8 | %9
 x8 | x8 | x8 | x8 | x8 | x8 | x8 |"A13" A,6 A,2 |"A911""Amaj911" A,6 A,2 |"E9/A" A,6 A,2 | %19
"A9" A,6 A2 | x8 | x8 | x8 | x8 :| %24
V:4
 x8 | x8 | x8 | x8 | x8 |"A#""Aother" ^A,6 A,2 |"B7sus4" B,4"B7" B,4 |"E" E,6 x2 ::"E9" E,6 E2 | %9
"Amaj7/E""A13/E" E,6 E2 |"A#other/E" E,6 E2 |"E7sus4""E7" E,6 E2 |"Bother/F""Bother" =F6 F2 | %13
"F#m" F4 F4 |"D13" D4"D7" D4 |"C#" C6 z2 | x8 | x8 | x8 | x8 |"F#7sus4" F6 F2 |"Dmaj7""D13" D8 | %22
"Bpower#57" ^D4"E7" E4 |"A" A,6 x2 :| %24

